X: 1
T: Trip to Moscow
O: Northumbrian March from Rachel Moloney
M: C|
L: 1/4
Z: Contributed 2016-03-14 20:18:17 by Dave Reiner dsreiner@rcn.com
K: Gm
|:|
"Gm"d>d cc | ddG G/A/ | BBAG | "F"c2 {B}c2 |
"Gm"d>d cc | ddG G/A/ | "Gm"BB"F"A/G/ F | "Gm"{F}G2G2 :|
|:|
"Gm"GA/B/ AG | "F"F G "Dm"D2 |"Gm"GA/B/ AG | "F"c2 {B}c2 |
"Gm"GA/B/ AG | "F"F_E "Dm"D2 |"Gm"GA/B/"F"AG | "Gm"{F}G2G2 :|
